newicons/emoji_classical_building.svg

<?xml version="1.0" encoding="UTF-8" standalone="no"?>
<svg
   version="1.2"
   viewBox="0 0 48 48"
   id="svg8"
   xmlns="http://www.w3.org/2000/svg"
   xmlns:svg="http://www.w3.org/2000/svg">
  <defs
     id="defs1" />
  <path
     d="M 24.003853,5.5487375 10.902416,13.062879 H 37.105292 L 24.003853,5.5487375"
     fill="none"
     stroke="#ffffff"
     stroke-linecap="round"
     stroke-linejoin="round"
     stroke-width="1"
     id="path1" />
  <path
     d="M 5.4999994,39.373933 H 42.500001 v 3.07733 H 5.4999994 v -3.07733"
     fill="none"
     stroke="#ffffff"
     stroke-linecap="round"
     stroke-linejoin="round"
     stroke-width="1"
     id="path2" />
  <path
     d="M 7.1877728,13.070586 H 40.827641 V 16.15254 H 7.1877728 v -3.081954"
     fill="none"
     stroke="#ffffff"
     stroke-linecap="round"
     stroke-linejoin="round"
     stroke-width="1"
     id="path3" />
  <path
     d="M 8.0278056,36.19102 H 39.987608 v 3.07733 H 8.0278056 v -3.07733"
     fill="none"
     stroke="#ffffff"
     stroke-linecap="round"
     stroke-linejoin="round"
     stroke-width="1"
     id="path4" />
  <path
     d="m 10.401479,16.15254 h 3.312352 V 36.19102 H 10.401479 V 16.15254"
     fill="none"
     stroke="#ffffff"
     stroke-linecap="round"
     stroke-linejoin="round"
     stroke-width="1"
     id="path5" />
  <path
     d="m 17.337534,16.15254 h 3.312352 V 36.19102 H 17.337534 V 16.15254"
     fill="none"
     stroke="#ffffff"
     stroke-linecap="round"
     stroke-linejoin="round"
     stroke-width="1"
     id="path6" />
  <path
     d="m 34.292335,16.15254 h 3.312353 V 36.19102 H 34.292335 V 16.15254"
     fill="none"
     stroke="#ffffff"
     stroke-linecap="round"
     stroke-linejoin="round"
     stroke-width="1"
     id="path7" />
  <path
     d="m 27.35628,16.15254 h 3.312353 V 36.19102 H 27.35628 V 16.15254"
     fill="none"
     stroke="#ffffff"
     stroke-linecap="round"
     stroke-linejoin="round"
     stroke-width="1"
     id="path8" />
</svg>

<?xml version="1.0" encoding="UTF-8"?><svg id="a" xmlns="http://www.w3.org/2000/svg" viewBox="0 0 48 48"><defs><style>.j{fill:none;stroke:#fff;stroke-linecap:round;stroke-linejoin:round;}</style></defs><path id="b" class="j" d="M24.0039,5.5487l-13.1014,7.5141h26.2029l-13.1014-7.5141"/><path id="c" class="j" d="M5.5,39.3739h37v3.0773H5.5v-3.0773"/><path id="d" class="j" d="M7.1878,13.0706h33.6399v3.082H7.1878v-3.082"/><path id="e" class="j" d="M8.0278,36.191h31.9598v3.0773H8.0278v-3.0773"/><path id="f" class="j" d="M10.4015,16.1525h3.3124v20.0385h-3.3124v-20.0385"/><path id="g" class="j" d="M17.3375,16.1525h3.3124v20.0385h-3.3124v-20.0385"/><path id="h" class="j" d="M34.2923,16.1525h3.3124v20.0385h-3.3124v-20.0385"/><path id="i" class="j" d="M27.3563,16.1525h3.3124v20.0385h-3.3124v-20.0385"/></svg>
